X:132
T:Charlie's Jig
S:Hariett Bartlett
D:Eyes Wide Open
Z:robin.beech@mcgill.ca
R:jig
M:6/8
L:1/8
K:D
c2 |: dcd A2F | BAF AFE | DED F2G | ABA ABc |
dcd A2F | BAF AFE | DED G2F |1 EDC D2c :|2 EDC D3 |:
E2E- EDE | F2F- FEF | G2G- GFG | ABA AGF |
E2E- EDE | F2F- FEF | ABc dAF | EFE- E2D :|
